!!!COM: Felix Mendelssohn
!!!CNT: Deutsch
!!!TXO: Deutsch
!!!OTL: Erster Verlust
!!!LYR: Goethe
!!!OPS: Op. 99
!!!ONM: No. 1
!!!ENC: Daniel Alt & Leigh VanHandel
!!!YOR: Sa2mmtliche Lieder fu2r eine Singstimme 
!!!YOR: Neu revidirt von Dr. L. Benda, Ausgabe fu2r mittlere Stimme
!!!YOR: Braunschweig. Henry Litolff's Verlag. Boston and New York: Arthur P. Schmidt.
!!!ODT: 1841/
**kern	**silbe
*staff1	*
=1-	=1
*clefG2	*
*k[f#c#]	*
*M2/4	*
2r	.
=2	=2
2r	.
=3	=3
2r	.
=4	=4
4r	.
{8.f#	{Ach,
16f#	wer
=5	=5
8e	bringt
8g	die
8.b	scho2-
16g	-nen
=6	=6
8g	Ta-
8f#	-ge,
8dd	je-
8cc#	-ne
=7	=7
8b	Ta-
16a	-ge
16g#	der
8gn	er-
8g	-sten
=8	=8
8b	Lie-
8a}	-be,}
{8.f#	{ach,
16f#	wer
=9	=9
8e	bringt
8g	nur
8.b	ei-
16g	-ne
=10	=10
8g	Stun-
8f#	-de
8dd	Je-
8cc#	-ner
=11	=11
[4b	hol-
16b]	|
16b}	-den,}
{16cc#	{je-
16b	-ner
=12	=12
[4a	hol-
16a]	|
16a	-den
16b	Zeit
16a	zu-
=13	=13
8g}	-ru2ck,}
8r	.
{8b	{ach,
8g	wer
=14	=14
8f#	bringt
8e	die
8b	scho2-
8g	-nen
=15	=15
8f#	Ta-
8e	-ge
8g	je-
8B	-ner
=16	=16
[4d	hol-
16d]	|
16d	-den
16f#	Zeit
16e	zur-
=17	=17
4d}	-u2ck,}
{8dd	{ach,
8b	wer
=18	=18
8a	bringt
8g#	nur
8b	ei-
8a	-ne
=19	=19
8g	Stun-
8f#	-de
8g	je-
8e	-ner
=20	=20
8.d	hol-
16f#	-den
8.b	Zeit
16a	au-
=21	=21
4d}	-ru2ck!}
4r	.
=22	=22
2r	.
=23	=23
2r	.
=24	=24
2r	.
=25	=25
4r	.
{8.f#	{Ein-
16f#	-sam
=26	=26
8g	na2hr’
8g	ich
8g	mei-
16g	-ne
16cc#	|
=27	=27
8cc#	Wun-
8f#	-de
8.f#	und
16f#	mit
=28	=28
8dd	stets
8cc#	er-
8.b	-nei-
16a	-ter
=29	=29
8a	Kla-
8g#	-ge
8.dd	traur’
16cc#	ich
=30	=30
8b	um’s
8a	ver-
8g#	-lor’-
bq	|
16a	|
16g#	-ne
=31	=31
4g#}	Glu2ck,}
{8cc#	{und
8f#	mit
=32	=32
8fn	stets
8dd	er-
8.cc#	-neu-
16g#	-ter
=33	=33
8b	Kla-
8a#	-ge
8b	traur’
8f#	ich
=34	=34
8.g	um’s
16g	ver-
8.f#	-lor’-
16f#	-ne
=35	=35
8ee	Glu2ck,
8dd	|
8cc#	um’s
8ccn	ver-
=36	=36
4.cc#	-lor’-
8a	-ne
=37	=37
[2cc#	Glu2ck.
=38	=38
4cc#]}	|}
{8f#	{Ach,
16r	.
16f#	wer
=39	=29
8e	bringt
8g	die
8.b	scho2-
16g	-nen
=40	=40
8g	Ta-
8f#	-ge,
8dd	je-
8cc#	-ne
=41	=41
8b	hol-
16a	-de
16g#	|
8g#	Zeit
8g#	zu-
=42	=42
8b	-ru2ck,
8a	|
8g	je-
8f#	-ne
=43	=43
8.a	hol-
16g	-de
8f#	Zeit
8e	zu-
=44	=44
4d}	-ru2ck,}
{8dd	{ach,
8b	wer
=45	=45
8a	bringt
8g#	nur
8b	ei-
8a	-ne
=46	=46
8g	Stun-
8f#	-de
8g	je-
8e	-ner
=47	=47
8.d	hol-
16f#	-den
8.b	Zeit
16a	zu-
=48	=48
4d}	-ru2ck,}
4r	.
=49	=49
4r	.
{8a	{ei-
8a	-ne
=50	=50
cc#q	Stun-
8b	|
8a}	-de}
4r	.
=51	=51
4r	.
{8a	{je-
8a	-ner
=52	=52
2ee	hol-
=53	=53
8.b	|
16a	-den
8g	Zeit
8e	zu-
=54	=54
4d}	-ru2ck!}
4r	.
==	==
*-	*-
